apps/www/public/images/launchweek/11/days/d5-light.svg

<svg width="764" height="230" viewBox="0 0 764 230" fill="none" xmlns="http://www.w3.org/2000/svg">
<rect width="764" height="230" fill="white"/>
<path d="M442 43.7411C442 39.3228 445.582 35.7411 450 35.7411H719.639C724.057 35.7411 727.639 39.3228 727.639 43.7411V75.3774H442V43.7411Z" fill="#FCFCFC"/>
<path d="M442 43.7411C442 39.3228 445.582 35.7411 450 35.7411H719.639C724.057 35.7411 727.639 39.3228 727.639 43.7411V75.3774H442V43.7411Z" stroke="#DFDFDF" stroke-width="0.5"/>
<rect x="450" y="43.7411" width="23.6363" height="23.6363" rx="4" fill="#FCFCFC" stroke="#EDEDED" stroke-width="0.738635"/>
<path fill-rule="evenodd" clip-rule="evenodd" d="M462.147 49.6093C460.608 50.9875 458.583 51.8352 456.361 51.8654C456.28 52.3461 456.238 52.8399 456.238 53.3435C456.238 57.2027 458.705 60.4859 462.147 61.7027C465.59 60.4859 468.056 57.2027 468.056 53.3435C468.056 52.8399 468.014 52.3461 467.934 51.8654C465.712 51.8352 463.687 50.9875 462.147 49.6093ZM462.886 58.5139C462.886 58.9218 462.555 59.2525 462.147 59.2525C461.739 59.2525 461.409 58.9218 461.409 58.5139C461.409 58.106 461.739 57.7753 462.147 57.7753C462.555 57.7753 462.886 58.106 462.886 58.5139ZM462.886 53.3435C462.886 52.9355 462.555 52.6048 462.147 52.6048C461.739 52.6048 461.409 52.9355 461.409 53.3435V55.5594C461.409 55.9673 461.739 56.298 462.147 56.298C462.555 56.298 462.886 55.9673 462.886 55.5594V53.3435Z" fill="#B2B2B2"/>
<rect x="481.636" y="45.7845" width="178.481" height="6.27475" rx="3.13737" fill="#EDEDED"/>
<rect x="695.777" y="45.7845" width="23.8139" height="6.27475" rx="3.13737" fill="#EDEDED"/>
<rect x="481.636" y="59.0593" width="237.954" height="6.27475" rx="3.13737" fill="#FCFCFC"/>
<rect x="442" y="115.014" width="285.591" height="39.6363" fill="#FCFCFC"/>
<rect x="442" y="115.014" width="285.591" height="39.6363" stroke="#DFDFDF" stroke-width="0.5"/>
<rect x="450" y="123.014" width="23.6363" height="23.6363" rx="4" fill="#FCFCFC" stroke="#EDEDED" stroke-width="0.738635"/>
<path d="M462.763 131.754H467.687M467.687 131.754V136.678M467.687 131.754L462.763 136.678L460.301 134.216L456.608 137.909" stroke="#B2B2B2" stroke-width="1.4" stroke-linecap="round" stroke-linejoin="round"/>
<rect x="481.636" y="125.057" width="178.481" height="6.27475" rx="3.13737" fill="#EDEDED"/>
<rect x="695.777" y="125.057" width="23.8139" height="6.27475" rx="3.13737" fill="#EDEDED"/>
<rect x="481.636" y="138.332" width="237.954" height="6.27475" rx="3.13737" fill="#FCFCFC"/>
<path d="M442 154.65H727.591V186.286C727.591 190.705 724.009 194.286 719.591 194.286H450C445.582 194.286 442 190.705 442 186.286V154.65Z" fill="#FCFCFC"/>
<path d="M442 154.65H727.591V186.286C727.591 190.705 724.009 194.286 719.591 194.286H450C445.582 194.286 442 190.705 442 186.286V154.65Z" stroke="#DFDFDF" stroke-width="0.5"/>
<rect x="450" y="162.65" width="23.6363" height="23.6363" rx="4" fill="#FCFCFC" stroke="#EDEDED" stroke-width="0.738635"/>
<path d="M462.763 171.391H467.687M467.687 171.391V176.315M467.687 171.391L462.763 176.315L460.301 173.853L456.608 177.546" stroke="#B2B2B2" stroke-width="1.4" stroke-linecap="round" stroke-linejoin="round"/>
<rect x="481.636" y="164.693" width="178.481" height="6.27475" rx="3.13737" fill="#EDEDED"/>
<rect x="695.777" y="164.693" width="23.8139" height="6.27475" rx="3.13737" fill="#EDEDED"/>
<rect x="481.636" y="177.968" width="237.954" height="6.27475" rx="3.13737" fill="#FCFCFC"/>
<rect x="442" y="75.3774" width="285.591" height="39.6363" fill="#FCFCFC"/>
<rect x="442" y="75.3774" width="285.591" height="39.6363" stroke="#B2B2B2" stroke-width="0.5"/>
<rect x="450" y="83.3774" width="23.6363" height="23.6363" rx="4" fill="#EDEDED" stroke="#B2B2B2" stroke-width="0.738635"/>
<path fill-rule="evenodd" clip-rule="evenodd" d="M462.147 89.2454C460.608 90.6236 458.583 91.4713 456.361 91.5015C456.28 91.9822 456.238 92.476 456.238 92.9796C456.238 96.8388 458.705 100.122 462.147 101.339C465.59 100.122 468.056 96.8388 468.056 92.9796C468.056 92.476 468.014 91.9822 467.934 91.5015C465.712 91.4713 463.687 90.6236 462.147 89.2454ZM462.886 98.15C462.886 98.5579 462.555 98.8886 462.147 98.8886C461.739 98.8886 461.409 98.5579 461.409 98.15C461.409 97.7421 461.739 97.4114 462.147 97.4114C462.555 97.4114 462.886 97.7421 462.886 98.15ZM462.886 92.9796C462.886 92.5716 462.555 92.2409 462.147 92.2409C461.739 92.2409 461.409 92.5716 461.409 92.9796V95.1955C461.409 95.6034 461.739 95.9341 462.147 95.9341C462.555 95.9341 462.886 95.6034 462.886 95.1955V92.9796Z" fill="#525252"/>
<rect x="481.636" y="85.4209" width="178.481" height="6.27475" rx="3.13737" fill="#525252"/>
<rect x="695.777" y="85.4209" width="23.8139" height="6.27475" rx="3.13737" fill="#E6E6E6"/>
<rect x="481.636" y="98.6957" width="237.954" height="6.27475" rx="3.13737" fill="#E6E6E6"/>
</svg>

<svg xmlns="http://www.w3.org/2000/svg" width="764" height="230" fill="none" viewBox="0 0 764 230"><path fill="#fff" d="M0 0h764v230H0z"/><path fill="#fcfcfc" d="M442 43.741a8 8 0 0 1 8-8h269.639a8 8 0 0 1 8 8v31.636H442z"/><path stroke="#dfdfdf" stroke-width=".5" d="M442 43.741a8 8 0 0 1 8-8h269.639a8 8 0 0 1 8 8v31.636H442z"/><rect width="23.636" height="23.636" x="450" y="43.741" fill="#fcfcfc" stroke="#ededed" stroke-width=".739" rx="4"/><path fill="#b2b2b2" fill-rule="evenodd" d="M462.147 49.61a8.83 8.83 0 0 1-5.786 2.255 8.868 8.868 0 0 0 5.786 9.837 8.87 8.87 0 0 0 5.787-9.837 8.83 8.83 0 0 1-5.787-2.256m.739 8.904a.739.739 0 1 1-1.478 0 .739.739 0 0 1 1.478 0m0-5.17a.739.739 0 0 0-1.477 0v2.215a.738.738 0 1 0 1.477 0z" clip-rule="evenodd"/><rect width="178.481" height="6.275" x="481.636" y="45.785" fill="#ededed" rx="3.137"/><rect width="23.814" height="6.275" x="695.777" y="45.785" fill="#ededed" rx="3.137"/><rect width="237.954" height="6.275" x="481.636" y="59.059" fill="#fcfcfc" rx="3.137"/><path fill="#fcfcfc" d="M442 115.014h285.591v39.636H442z"/><path stroke="#dfdfdf" stroke-width=".5" d="M442 115.014h285.591v39.636H442z"/><rect width="23.636" height="23.636" x="450" y="123.014" fill="#fcfcfc" stroke="#ededed" stroke-width=".739" rx="4"/><path stroke="#b2b2b2" stroke-linecap="round" stroke-linejoin="round" stroke-width="1.4" d="M462.763 131.754h4.924m0 0v4.924m0-4.924-4.924 4.924-2.462-2.462-3.693 3.693"/><rect width="178.481" height="6.275" x="481.636" y="125.057" fill="#ededed" rx="3.137"/><rect width="23.814" height="6.275" x="695.777" y="125.057" fill="#ededed" rx="3.137"/><rect width="237.954" height="6.275" x="481.636" y="138.332" fill="#fcfcfc" rx="3.137"/><path fill="#fcfcfc" d="M442 154.65h285.591v31.636a8 8 0 0 1-8 8H450a8 8 0 0 1-8-8z"/><path stroke="#dfdfdf" stroke-width=".5" d="M442 154.65h285.591v31.636a8 8 0 0 1-8 8H450a8 8 0 0 1-8-8z"/><rect width="23.636" height="23.636" x="450" y="162.65" fill="#fcfcfc" stroke="#ededed" stroke-width=".739" rx="4"/><path stroke="#b2b2b2" stroke-linecap="round" stroke-linejoin="round" stroke-width="1.4" d="M462.763 171.391h4.924m0 0v4.924m0-4.924-4.924 4.924-2.462-2.462-3.693 3.693"/><rect width="178.481" height="6.275" x="481.636" y="164.693" fill="#ededed" rx="3.137"/><rect width="23.814" height="6.275" x="695.777" y="164.693" fill="#ededed" rx="3.137"/><rect width="237.954" height="6.275" x="481.636" y="177.968" fill="#fcfcfc" rx="3.137"/><path fill="#fcfcfc" d="M442 75.377h285.591v39.636H442z"/><path stroke="#b2b2b2" stroke-width=".5" d="M442 75.377h285.591v39.636H442z"/><rect width="23.636" height="23.636" x="450" y="83.377" fill="#ededed" stroke="#b2b2b2" stroke-width=".739" rx="4"/><path fill="#525252" fill-rule="evenodd" d="M462.147 89.245a8.83 8.83 0 0 1-5.786 2.256 8.869 8.869 0 0 0 5.786 9.838 8.87 8.87 0 0 0 5.787-9.838 8.83 8.83 0 0 1-5.787-2.256m.739 8.905a.739.739 0 1 1-1.478 0 .739.739 0 0 1 1.478 0m0-5.17a.739.739 0 0 0-1.477 0v2.215a.738.738 0 1 0 1.477 0z" clip-rule="evenodd"/><rect width="178.481" height="6.275" x="481.636" y="85.421" fill="#525252" rx="3.137"/><rect width="23.814" height="6.275" x="695.777" y="85.421" fill="#e6e6e6" rx="3.137"/><rect width="237.954" height="6.275" x="481.636" y="98.696" fill="#e6e6e6" rx="3.137"/></svg>
